navigator-task/img/icons/phone.svg

<svg width="14" height="14" viewBox="0 0 14 14" fill="none" xmlns="http://www.w3.org/2000/svg">
<path d="M2.965 6.0925C4.045 8.215 5.785 9.9475 7.9075 11.035L9.5575 9.385C9.76 9.1825 10.06 9.115 10.3225 9.205C11.1625 9.4825 12.07 9.6325 13 9.6325C13.4125 9.6325 13.75 9.97 13.75 10.3825V13C13.75 13.4125 13.4125 13.75 13 13.75C5.9575 13.75 0.25 8.0425 0.25 1C0.25 0.5875 0.5875 0.25 1 0.25H3.625C4.0375 0.25 4.375 0.5875 4.375 1C4.375 1.9375 4.525 2.8375 4.8025 3.6775C4.885 3.94 4.825 4.2325 4.615 4.4425L2.965 6.0925Z" fill="white"/>
</svg>

<svg width="14" height="14" fill="none" xmlns="http://www.w3.org/2000/svg"><path d="M2.965 6.093a11.361 11.361 0 004.942 4.942l1.65-1.65a.746.746 0 01.765-.18c.84.277 1.748.428 2.678.428.412 0 .75.337.75.75V13c0 .412-.338.75-.75.75C5.957 13.75.25 8.043.25 1 .25.588.588.25 1 .25h2.625c.412 0 .75.338.75.75 0 .938.15 1.837.428 2.678a.753.753 0 01-.188.764l-1.65 1.65z" fill="#fff"/></svg>
